images/PARTNERS/SVG/Icon Soporte.svg

<svg width="87" height="87" viewBox="0 0 87 87" fill="none" xmlns="http://www.w3.org/2000/svg">
<circle cx="43.5" cy="43.5" r="43.5" fill="white"/>
<path d="M69.7007 15.5745C77.1517 22.6603 81.7964 32.67 81.7964 43.7652C81.7964 65.2477 64.3808 82.6634 42.8982 82.6634C21.4157 82.6634 4 65.2477 4 43.7652C4 30.4514 10.6881 18.7009 20.8904 11.6877" stroke="url(#paint0_linear_57_23)" stroke-width="2" stroke-miterlimit="10"/>
<path d="M65.522 17.4003C68.6702 17.4003 71.2222 14.8483 71.2222 11.7002C71.2222 8.55205 68.6702 6 65.522 6C62.3739 6 59.8219 8.55205 59.8219 11.7002C59.8219 14.8483 62.3739 17.4003 65.522 17.4003Z" stroke="url(#paint1_linear_57_23)" stroke-width="2" stroke-miterlimit="10"/>
<path d="M31.9258 60.1485C30.8804 60.1485 29.8919 59.7297 29.1427 58.9702C28.3722 58.1895 27.9674 57.1695 28.0021 56.0979C28.0385 54.9899 28.5377 53.9539 29.4087 53.1803C33.861 49.2222 38.4867 45.1236 43.5511 40.6506C43.9391 40.3083 44.0494 39.9312 43.9097 39.427C43.0751 36.4142 43.794 33.8718 46.0451 31.871C47.4411 30.6296 49.0043 30 50.6895 30C51.6718 30 52.711 30.2143 53.7778 30.6358C54.0981 30.763 54.2965 30.9399 54.3374 31.1338C54.3801 31.3392 54.2547 31.6087 53.9931 31.8728C53.0669 32.8074 52.1389 33.7402 51.2109 34.6731C50.6753 35.2111 50.1405 35.7491 49.6058 36.2879C49.5506 36.3431 49.5035 36.3982 49.4617 36.4471C49.4457 36.4658 49.4287 36.4854 49.4127 36.5031L49.0942 36.8624L51.404 39.122L51.7572 38.7592C51.9859 38.5235 52.2172 38.2852 52.4503 38.0442C52.9779 37.4991 53.5242 36.9344 54.0705 36.3813C54.761 35.6824 55.5768 34.8616 56.3963 34.0701C56.5662 33.9065 56.7442 33.8194 56.9106 33.8194C57.141 33.8194 57.3536 33.9954 57.4942 34.3022C58.521 36.5432 58.3306 39.1318 56.9844 41.2269C55.6338 43.33 53.3667 44.5847 50.9199 44.5856C50.7082 44.5856 50.492 44.5758 50.2784 44.558C49.7188 44.51 49.1538 44.3642 48.7232 44.2424C48.5826 44.2023 48.458 44.1837 48.3415 44.1837C47.9349 44.1837 47.6831 44.4149 47.53 44.5892C45.2897 47.128 43.0031 49.7033 40.7921 52.1932L39.4219 53.737C38.9832 54.2314 38.5446 54.7267 38.1068 55.222C37.0712 56.3932 35.9999 57.6044 34.934 58.7826C34.1341 59.663 33.0665 60.1485 31.9258 60.1485ZM50.7892 31.2343C48.7677 31.2343 46.8894 32.2783 45.7657 34.0257C44.6473 35.7642 44.4827 37.9046 45.3262 39.7507C45.6118 40.3768 45.5958 40.4523 45.0797 40.9103C43.0022 42.7564 40.922 44.6007 38.8426 46.445L37.4982 47.6375C36.7429 48.3072 35.9875 48.9759 35.2312 49.6446C33.5629 51.1217 31.8368 52.6485 30.1472 54.1585C29.4692 54.7649 29.1383 55.6213 29.2388 56.5088C29.3393 57.3945 29.8518 58.1521 30.6428 58.587C31.0601 58.8164 31.4934 58.9329 31.9294 58.9329C32.7506 58.9329 33.554 58.5158 34.2534 57.7262C38.4538 52.9864 42.6587 48.2511 47.3254 42.9965C47.6359 42.647 47.7827 42.647 47.8539 42.647C47.966 42.647 48.1146 42.6906 48.3077 42.7804C49.1325 43.1619 50.0017 43.3558 50.8915 43.3558C53.7538 43.3558 56.1801 41.3834 56.7913 38.56C56.9195 37.9678 57.0227 37.2546 56.8198 36.456L56.6063 35.6192L55.9817 36.2159C55.9203 36.2746 55.8642 36.328 55.8108 36.3786C55.7023 36.4809 55.608 36.5707 55.5163 36.6614C55.1765 36.9976 54.8384 37.3346 54.4994 37.6707C53.8507 38.3155 53.1808 38.9815 52.517 39.6324C52.1852 39.9579 51.7572 40.1375 51.3114 40.1375C50.8772 40.1375 50.46 39.9659 50.1352 39.6547C49.5409 39.0855 49.0115 38.5564 48.5168 38.0371C47.8495 37.3364 47.8619 36.3208 48.547 35.6219C49.3629 34.7904 50.0889 34.0604 50.7687 33.3907C51.0232 33.14 51.2954 32.891 51.5828 32.6278C51.7252 32.4979 51.8729 32.3628 52.0277 32.2187L52.7279 31.5687L51.7955 31.357C51.7065 31.3366 51.6397 31.3205 51.5873 31.3072C51.484 31.2814 51.4102 31.2636 51.3194 31.2556C51.1424 31.2414 50.9644 31.2343 50.7892 31.2343Z" fill="url(#paint2_linear_57_23)"/>
<defs>
<linearGradient id="paint0_linear_57_23" x1="4" y1="82.665" x2="81.7964" y2="82.665" gradientUnits="userSpaceOnUse">
<stop stop-color="#1723FF"/>
<stop offset="1" stop-color="#30E35E"/>
</linearGradient>
<linearGradient id="paint1_linear_57_23" x1="59.8219" y1="17.4006" x2="71.2222" y2="17.4006" gradientUnits="userSpaceOnUse">
<stop stop-color="#1723FF"/>
<stop offset="1" stop-color="#30E35E"/>
</linearGradient>
<linearGradient id="paint2_linear_57_23" x1="28" y1="60.1492" x2="58.1485" y2="60.1492" gradientUnits="userSpaceOnUse">
<stop stop-color="#1723FF"/>
<stop offset="1" stop-color="#30E35E"/>
</linearGradient>
</defs>
</svg>

<svg width="87" height="87" fill="none" xmlns="http://www.w3.org/2000/svg"><circle cx="43.5" cy="43.5" r="43.5" fill="#fff"/><path d="M69.7 15.575c7.452 7.085 12.096 17.095 12.096 28.19 0 21.483-17.415 38.898-38.898 38.898C21.416 82.663 4 65.248 4 43.765c0-13.314 6.688-25.064 16.89-32.077" stroke="url(#a)" stroke-width="2" stroke-miterlimit="10"/><path d="M65.522 17.4a5.7 5.7 0 1 0 0-11.4 5.7 5.7 0 0 0 0 11.4Z" stroke="url(#b)" stroke-width="2" stroke-miterlimit="10"/><path d="M31.926 60.148a3.889 3.889 0 0 1-2.783-1.178 3.88 3.88 0 0 1-1.14-2.872c.035-1.108.535-2.144 1.406-2.918 4.452-3.958 9.078-8.056 14.142-12.53.388-.342.498-.719.359-1.223-.835-3.013-.116-5.555 2.135-7.556C47.441 30.63 49.005 30 50.69 30c.982 0 2.021.214 3.088.636.32.127.519.304.56.498.042.205-.083.475-.345.739-.926.934-1.854 1.867-2.782 2.8l-1.605 1.615c-.055.055-.102.11-.144.16a2.803 2.803 0 0 1-.05.055l-.318.36 2.31 2.259.353-.363.693-.715c.528-.545 1.074-1.11 1.62-1.663.691-.699 1.507-1.52 2.326-2.31.17-.164.348-.252.515-.252.23 0 .443.176.583.483 1.027 2.241.837 4.83-.51 6.925-1.35 2.103-3.617 3.358-6.064 3.359-.212 0-.428-.01-.642-.028-.56-.048-1.124-.194-1.555-.316a1.384 1.384 0 0 0-.381-.058c-.407 0-.659.23-.812.405a3276.5 3276.5 0 0 1-6.738 7.604l-1.37 1.544c-.439.494-.877.99-1.315 1.485a422.016 422.016 0 0 1-3.173 3.56c-.8.881-1.867 1.367-3.008 1.367Zm18.863-28.914c-2.021 0-3.9 1.044-5.023 2.792-1.119 1.738-1.283 3.879-.44 5.725.286.626.27.701-.246 1.16l-6.237 5.534-1.345 1.193c-.755.67-1.51 1.338-2.267 2.007-1.668 1.477-3.394 3.003-5.084 4.513a2.713 2.713 0 0 0-.908 2.35c.1.886.613 1.644 1.404 2.079.417.23.85.346 1.286.346.822 0 1.625-.417 2.324-1.207 4.2-4.74 8.406-9.475 13.072-14.73.31-.349.458-.349.529-.349.112 0 .26.044.454.133a6.115 6.115 0 0 0 2.584.576c2.862 0 5.288-1.973 5.9-4.796.127-.592.23-1.305.028-2.104l-.214-.837-.624.597-.171.163c-.109.102-.203.192-.295.282l-1.017 1.01c-.648.645-1.318 1.31-1.982 1.961-.332.326-.76.506-1.206.506-.434 0-.851-.172-1.176-.483a49.646 49.646 0 0 1-1.618-1.618c-.668-.7-.655-1.716.03-2.415.816-.832 1.542-1.562 2.222-2.231.254-.251.526-.5.814-.763.142-.13.29-.265.445-.41l.7-.65-.933-.211a9.332 9.332 0 0 1-.208-.05 1.641 1.641 0 0 0-.268-.051 6.651 6.651 0 0 0-.53-.022Z" fill="url(#c)"/><defs><linearGradient id="a" x1="4" y1="82.665" x2="81.796" y2="82.665" gradientUnits="userSpaceOnUse"><stop stop-color="#1723FF"/><stop offset="1" stop-color="#30E35E"/></linearGradient><linearGradient id="b" x1="59.822" y1="17.401" x2="71.222" y2="17.401" gradientUnits="userSpaceOnUse"><stop stop-color="#1723FF"/><stop offset="1" stop-color="#30E35E"/></linearGradient><linearGradient id="c" x1="28" y1="60.149" x2="58.148" y2="60.149" gradientUnits="userSpaceOnUse"><stop stop-color="#1723FF"/><stop offset="1" stop-color="#30E35E"/></linearGradient></defs></svg>
